ui/StatusQ/src/assets/img/icons/currency.svg

<svg fill="none" height="16" viewBox="0 0 16 16" width="16" xmlns="http://www.w3.org/2000/svg"><path clip-rule="evenodd" d="m14.6666 8c0 3.6819-2.9847 6.6667-6.66662 6.6667-3.6819 0-6.66667-2.9848-6.66667-6.6667s2.98477-6.66667 6.66667-6.66667c3.68192 0 6.66662 2.98477 6.66662 6.66667zm-11.94778-.5c-.19556 0-.34996-.16792-.32048-.36124.25697-1.68527 1.2563-3.12642 2.65387-3.97933.2758-.16831.56763.15677.43814.45279-.42806.97852-.71535 2.20959-.79868 3.56684-.01099.17896-.1577.32094-.33699.32094zm-.32048 1.36123c-.02948-.19332.12492-.36123.32047-.36123h1.63587c.17929 0 .326.14197.33699.32093.08333 1.35727.37062 2.58837.79867 3.56687.1295.296-.16233.6211-.43813.4528-1.39757-.8529-2.3969-2.2941-2.65387-3.97937zm3.62522-1.36123c-.18933 0-.3411-.15769-.32814-.34657.09368-1.36556.40911-2.55455.84196-3.42027.55007-1.10012 1.12495-1.39983 1.4626-1.39983s.91253.29971 1.4626 1.39983c.43285.86571.74832 2.05471.84192 3.42027.013.18888-.1388.34657-.3281.34657zm4.28094 1.34656c.013-.18888-.1388-.34656-.3281-.34656h-3.95284c-.18933 0-.3411.15768-.32814.34656.09368 1.36554.40911 2.55454.84196 3.42024.55007 1.1002 1.12495 1.3999 1.4626 1.3999s.91253-.2997 1.4626-1.3999c.43285-.8657.74832-2.0547.84192-3.42024zm1.3408-1.34656c-.1793 0-.326-.14198-.337-.32094-.0833-1.35725-.3706-2.58832-.7987-3.56684-.1295-.29602.1623-.6211.4381-.45279 1.3976.85291 2.397 2.29406 2.6539 3.97933.0295.19332-.1249.36124-.3205.36124zm1.9563 1.36123c.0295-.19332-.1249-.36123-.3205-.36123h-1.6358c-.1793 0-.326.14197-.337.32093-.0833 1.35727-.3706 2.58837-.7987 3.56687-.1295.296.1623.6211.4381.4528 1.3976-.8529 2.397-2.2941 2.6539-3.97937z" fill="#4360df" fill-rule="evenodd"/></svg>

<svg width="16" height="16" viewBox="0 0 16 16" fill="none" xmlns="http://www.w3.org/2000/svg">
<path fill-rule="evenodd" clip-rule="evenodd" d="M14.6666 8C14.6666 11.6819 11.6819 14.6667 7.99998 14.6667C4.31808 14.6667 1.33331 11.6819 1.33331 8C1.33331 4.3181 4.31808 1.33333 7.99998 1.33333C11.6819 1.33333 14.6666 4.3181 14.6666 8ZM2.71882 7.5C2.52326 7.5 2.36886 7.33208 2.39834 7.13876C2.65531 5.45349 3.65464 4.01234 5.05221 3.15943C5.32801 2.99112 5.61984 3.3162 5.49035 3.61222C5.06229 4.59074 4.775 5.82181 4.69167 7.17906C4.68068 7.35802 4.53397 7.5 4.35468 7.5H2.71882ZM2.39834 8.86123C2.36886 8.66791 2.52326 8.5 2.71881 8.5H4.35468C4.53397 8.5 4.68068 8.64197 4.69167 8.82093C4.775 10.1782 5.06229 11.4093 5.49034 12.3878C5.61984 12.6838 5.32801 13.0089 5.05221 12.8406C3.65464 11.9877 2.65531 10.5465 2.39834 8.86123ZM6.02356 7.5C5.83423 7.5 5.68246 7.34231 5.69542 7.15343C5.7891 5.78787 6.10453 4.59888 6.53738 3.73316C7.08745 2.63304 7.66233 2.33333 7.99998 2.33333C8.33763 2.33333 8.91251 2.63304 9.46258 3.73316C9.89543 4.59887 10.2109 5.78787 10.3045 7.15343C10.3175 7.34231 10.1657 7.5 9.9764 7.5H6.02356ZM10.3045 8.84656C10.3175 8.65768 10.1657 8.5 9.9764 8.5H6.02356C5.83423 8.5 5.68246 8.65768 5.69542 8.84656C5.7891 10.2121 6.10453 11.4011 6.53738 12.2668C7.08745 13.367 7.66233 13.6667 7.99998 13.6667C8.33763 13.6667 8.91251 13.367 9.46258 12.2668C9.89543 11.4011 10.2109 10.2121 10.3045 8.84656ZM11.6453 7.5C11.466 7.5 11.3193 7.35802 11.3083 7.17906C11.225 5.82181 10.9377 4.59074 10.5096 3.61222C10.3801 3.3162 10.6719 2.99112 10.9477 3.15943C12.3453 4.01234 13.3447 5.45349 13.6016 7.13876C13.6311 7.33208 13.4767 7.5 13.2811 7.5H11.6453ZM13.6016 8.86123C13.6311 8.66791 13.4767 8.5 13.2811 8.5H11.6453C11.466 8.5 11.3193 8.64197 11.3083 8.82093C11.225 10.1782 10.9377 11.4093 10.5096 12.3878C10.3801 12.6838 10.6719 13.0089 10.9477 12.8406C12.3453 11.9877 13.3447 10.5465 13.6016 8.86123Z" fill="#4360DF"/>
</svg>
